src/assets/icons/MainLogo.svg

<svg width="672" height="597" viewBox="0 0 672 597" fill="none" xmlns="http://www.w3.org/2000/svg">
<circle cx="325" cy="288" r="219" fill="white" stroke="#5E07CD" stroke-width="12"/>
<path d="M262.982 388.014V424H257.123V407.789H243.549V403.785H257.123V388.014H262.982ZM235.59 388.014H241.547V424H235.59V388.014ZM278.119 424H272.162V388.014H278.119V424ZM316.596 424H310.541L301.215 397.047L291.791 424H285.688L298.285 388.062H304.096L316.596 424ZM304.438 412.574L305.854 416.529H296.527L297.895 412.574H304.438ZM324.066 388.014H329.926V424H324.066V388.014ZM348.48 424H342.279L335.492 410.963C335.395 410.963 335.281 410.979 335.15 411.012C335.053 411.012 334.89 411.012 334.662 411.012C334.434 411.012 334.092 411.012 333.637 411.012C333.214 411.012 332.644 411.012 331.928 411.012V406.715H335.248C335.964 406.715 336.68 406.601 337.396 406.373C338.113 406.113 338.764 405.706 339.35 405.152C339.936 404.599 340.408 403.834 340.766 402.857C341.124 401.848 341.303 400.611 341.303 399.146C341.303 398.561 341.221 397.893 341.059 397.145C340.896 396.363 340.554 395.631 340.033 394.947C339.545 394.231 338.845 393.645 337.934 393.189C337.022 392.701 335.818 392.457 334.32 392.457H331.928V388.014H334.418C335.948 388.014 337.462 388.258 338.959 388.746C340.456 389.234 341.791 389.967 342.963 390.943C344.167 391.92 345.128 393.108 345.844 394.508C346.592 395.875 346.967 397.421 346.967 399.146C346.967 401.751 346.365 403.964 345.16 405.787C343.956 407.61 342.328 408.961 340.277 409.84L348.48 424ZM356.537 388.014H362.494V424H356.537V388.014ZM377.533 407.789H364.496V403.785H377.533V407.789ZM364.496 419.557H379.047V424H364.496V419.557ZM379.047 388.014V392.457H364.496V388.014H379.047ZM416.547 424H410.492L401.166 397.047L391.742 424H385.639L398.236 388.062H404.047L416.547 424ZM404.389 412.574L405.805 416.529H396.479L397.846 412.574H404.389Z" fill="#5E07CD"/>
<path d="M230.547 372H224.59V336.014H230.547V372ZM256.719 353.055C257.467 353.152 258.265 353.396 259.111 353.787C259.958 354.178 260.739 354.731 261.455 355.447C262.204 356.163 262.822 357.042 263.311 358.084C263.799 359.093 264.043 360.265 264.043 361.6C264.043 363.227 263.799 364.627 263.311 365.799C262.822 366.971 262.204 367.947 261.455 368.729C260.739 369.477 259.941 370.079 259.062 370.535C258.216 370.958 257.386 371.284 256.572 371.512C255.791 371.74 255.091 371.886 254.473 371.951C253.854 371.984 253.447 372 253.252 372H247.588V367.703H252.91C254.635 367.703 255.986 367.15 256.963 366.043C257.939 364.936 258.428 363.455 258.428 361.6C258.428 359.842 257.923 358.361 256.914 357.156C255.905 355.952 254.424 355.35 252.471 355.35H247.588V351.395H249.932C250.648 351.395 251.38 351.378 252.129 351.346C252.878 351.313 253.577 351.134 254.229 350.809C254.88 350.483 255.4 349.93 255.791 349.148C256.214 348.367 256.426 347.244 256.426 345.779C256.426 345.193 256.344 344.591 256.182 343.973C256.019 343.322 255.693 342.736 255.205 342.215C254.717 341.694 254.017 341.271 253.105 340.945C252.194 340.62 250.99 340.457 249.492 340.457H247.588V336.014H250.078C251.608 336.014 253.089 336.193 254.521 336.551C255.954 336.909 257.223 337.479 258.33 338.26C259.437 339.041 260.316 340.066 260.967 341.336C261.618 342.573 261.943 344.054 261.943 345.779C261.943 346.788 261.781 347.716 261.455 348.562C261.13 349.376 260.723 350.092 260.234 350.711C259.746 351.329 259.176 351.85 258.525 352.273C257.907 352.664 257.305 352.924 256.719 353.055ZM239.727 336.014H245.586V372H239.727V336.014ZM272.197 336.014H278.057V372H272.197V336.014ZM296.611 372H290.41L283.623 358.963C283.525 358.963 283.411 358.979 283.281 359.012C283.184 359.012 283.021 359.012 282.793 359.012C282.565 359.012 282.223 359.012 281.768 359.012C281.344 359.012 280.775 359.012 280.059 359.012V354.715H283.379C284.095 354.715 284.811 354.601 285.527 354.373C286.243 354.113 286.895 353.706 287.48 353.152C288.066 352.599 288.538 351.834 288.896 350.857C289.255 349.848 289.434 348.611 289.434 347.146C289.434 346.561 289.352 345.893 289.189 345.145C289.027 344.363 288.685 343.631 288.164 342.947C287.676 342.231 286.976 341.645 286.064 341.189C285.153 340.701 283.949 340.457 282.451 340.457H280.059V336.014H282.549C284.079 336.014 285.592 336.258 287.09 336.746C288.587 337.234 289.922 337.967 291.094 338.943C292.298 339.92 293.258 341.108 293.975 342.508C294.723 343.875 295.098 345.421 295.098 347.146C295.098 349.751 294.495 351.964 293.291 353.787C292.087 355.61 290.459 356.961 288.408 357.84L296.611 372ZM334.014 372H327.959L318.633 345.047L309.209 372H303.105L315.703 336.062H321.514L334.014 372ZM321.855 360.574L323.271 364.529H313.945L315.312 360.574H321.855ZM369.072 336.014V372H363.213V355.789H349.639V351.785H363.213V336.014H369.072ZM341.68 336.014H347.637V372H341.68V336.014ZM384.209 372H378.252V336.014H384.209V372ZM393.193 336.014H399.15L408.818 358.23V367.264H407.256L399.15 347.244V372H393.193V336.014ZM420.488 336.014H426.445V372H420.488V347.244L412.432 367.264H410.82V358.328L420.488 336.014Z" fill="#5E07CD"/>
<path d="M377.474 306.077C390.622 298.771 393.185 277.305 386.567 249.098C414.268 241.904 431.791 229.433 432.523 214.451C432.359 210.897 431.504 207.729 429.57 204.249C423.768 193.808 408.421 184.117 387.537 177.502C392.949 156.275 393.212 138.82 387.023 127.684C385.089 124.203 382.85 121.804 379.919 119.789C367.197 113.193 347.352 121.488 326.227 140.515C306.156 120.695 285.496 111.224 273.04 118.145C259.892 125.452 257.329 146.917 263.947 175.124C236.633 183.015 218.417 195.871 218.378 210.468C218.541 214.021 219.396 217.19 221.33 220.67C227.132 231.111 242.48 240.802 263.364 247.417C257.952 268.644 257.689 286.099 263.878 297.235C265.812 300.716 268.051 303.115 270.982 305.13C283.399 312.806 303.935 304.127 325.06 285.1C344.745 304.224 365.018 312.999 377.474 306.077ZM420.574 209.248C421.735 211.336 422.508 212.728 421.511 214.193C421.837 221.299 411.926 229.54 396.234 235.528C392.387 236.754 387.848 238.366 384.001 239.592C381.822 230.782 378.26 222.741 374.615 212.923C378.828 204.206 382.348 195.872 384.79 187.228C403.516 193.219 416.32 201.591 420.574 209.248ZM325.036 245.941C318.645 245.848 312.254 245.756 306.168 244.583C302.382 239.399 299.287 233.831 296.193 228.262C293.099 222.694 290.004 217.126 287.602 211.173C290.207 206.081 293.504 200.605 296.414 194.433C299.71 188.957 303.007 183.481 306.691 178.701C312.695 178.098 319.086 178.19 325.478 178.282C331.869 178.375 338.647 179.163 345.038 179.255C348.824 184.439 351.918 190.008 355.013 195.576C358.107 201.144 361.202 206.713 363.604 212.666C360.999 217.757 358.089 223.929 354.1 229.79C350.803 235.266 347.507 240.742 343.823 245.522C337.819 246.125 331.427 246.033 325.036 245.941ZM336.151 256.162C332.467 260.942 328.397 265.026 325.018 268.725C320.927 264.622 317.527 260.134 314.128 255.647C317.669 255.5 321.597 256.05 325.139 255.904C328.375 256.839 332.609 256.308 336.151 256.162ZM275.433 239.799C276.959 234.396 279.177 228.608 281.782 223.517C283.716 226.997 285.65 230.477 287.197 233.261C289.131 236.742 291.065 240.222 292.612 243.006C286.913 242.529 280.827 241.356 275.433 239.799ZM281.718 198.955C279.703 193.699 277.687 188.442 276.364 182.8C281.981 181.501 287.986 180.897 292.911 179.982C290.917 182.912 288.922 185.842 287.315 189.469C285.707 193.095 283.713 196.025 281.718 198.955ZM314.363 168.061C318.047 163.281 322.117 159.197 325.801 154.417C329.892 158.52 333.292 163.008 337.078 168.192C333.15 167.642 329.608 167.788 325.68 167.238C321.833 168.465 318.292 168.611 314.363 168.061ZM375.081 184.424C373.555 189.827 370.95 194.919 369.424 200.322C367.49 196.841 365.943 194.057 364.009 190.577C362.075 187.097 360.528 184.313 358.594 180.832C363.988 182.39 370.074 183.563 375.081 184.424ZM363.199 234.754C364.807 231.128 366.801 228.198 368.409 224.571C370.811 230.524 372.826 235.781 374.15 241.423C368.532 242.722 362.528 243.326 356.524 243.93C358.905 241.695 360.899 238.765 363.199 234.754ZM343.935 139.785C357.306 129.621 368.847 125.941 375.401 129.587C376.867 130.595 378.332 131.602 379.106 132.994C383.361 140.651 383.321 155.248 378.52 174.314C370.276 172.518 360.954 170.411 351.326 169.384C345.993 161.416 339.967 153.833 333.636 147.33C336.71 144.711 340.475 141.708 343.935 139.785ZM271.762 159.85C269.948 143.549 272.532 130.27 278.068 127.194C284.296 123.733 295.858 128.24 308.743 138.389C312.061 141.1 315.379 143.811 318.391 147.603C311.94 153.921 305.875 160.935 300.584 169.341C291.038 170.091 281.879 171.537 273.798 173.294C272.861 168.349 272.311 164.099 271.762 159.85ZM228.311 210.414C227.984 203.308 237.896 195.067 253.588 189.08C257.435 187.853 261.974 186.242 266.513 184.631C269.383 193.056 272.254 201.482 276.204 210.219C271.991 218.937 268.858 227.966 266.029 235.915C247.303 229.923 234.886 222.247 230.631 214.591C229.166 213.583 229.084 211.807 228.311 210.414ZM306.966 285.134C293.594 295.298 282.054 298.978 275.5 295.332C274.034 294.324 272.568 293.317 271.795 291.925C267.54 284.268 267.579 269.671 272.381 250.605C281.011 253.097 289.947 254.508 299.574 255.535C304.908 263.503 310.933 271.086 316.185 277.278C313.804 279.512 310.731 282.131 306.966 285.134ZM341.771 285.834C338.453 283.123 335.135 280.412 332.122 276.62C337.882 270.687 343.947 263.672 349.625 255.962C359.171 255.212 368.33 253.767 377.489 252.321C378.039 256.57 379.668 261.131 380.218 265.38C382.031 281.682 379.753 293.88 373.525 297.34C366.91 300.105 354.656 295.983 341.771 285.834Z" fill="#5E07CD"/>
<path d="M308.344 222.421C313.759 232.166 325.626 235.592 335.314 230.209C345.002 224.825 348.359 212.938 342.944 203.194C337.529 193.449 325.662 190.023 315.974 195.406C306.286 200.79 302.929 212.676 308.344 222.421Z" fill="#5E07CD"/>
</svg>

<svg version="1.2" xmlns="http://www.w3.org/2000/svg" viewBox="0 0 672 597" width="672" height="597">
	<title>MainLogo</title>
	<style>
		tspan { white-space:pre } 
		.s0 { fill: #000000;stroke: #5e07cd;stroke-width: 12 } 
		.t1 { font-size: 35px;fill: #ff0896;font-weight: 400;font-family: "DejaVuSans", "DejaVu Sans" } 
		.s2 { fill: #00caff } 
		.s3 { fill: #000000 } 
	</style>
	<path fill-rule="evenodd" class="s0" d="m325 507c-121.1 0-219-97.9-219-219 0-121.1 97.9-219 219-219 121.1 0 219 97.9 219 219 0 121.1-97.9 219-219 219z"/>
	<text id="" style="transform: matrix(1,0,0,1,106,69)" >
	</text>
	<text id="ADITYA SAPUTRA" style="transform: matrix(1,0,0,1,331,374)" >
		<tspan x="-62.6" y="0" class="t1">A</tspan><tspan  y="0" class="t1">D</tspan><tspan  y="0" class="t1">I</tspan><tspan  y="0" class="t1">T</tspan><tspan  y="0" class="t1">Y</tspan><tspan  y="0" class="t1">A</tspan><tspan  y="0" class="t1">
</tspan>
		<tspan x="-80.9" y="42" class="t1">S</tspan><tspan  y="42" class="t1">A</tspan><tspan  y="42" class="t1">P</tspan><tspan  y="42" class="t1">U</tspan><tspan  y="42" class="t1">T</tspan><tspan  y="42" class="t1">R</tspan><tspan  y="42" class="t1">A</tspan><tspan  y="42" class="t1">
</tspan>
	</text>
	<path class="s2" d="m377.5 306.1c13.1-7.3 15.7-28.8 9.1-57 27.7-7.2 45.2-19.7 45.9-34.6-0.1-3.6-1-6.8-2.9-10.3-5.8-10.4-21.2-20.1-42.1-26.7 5.4-21.2 5.7-38.7-0.5-49.8-1.9-3.5-4.1-5.9-7.1-7.9-12.7-6.6-32.5 1.7-53.7 20.7-20-19.8-40.7-29.3-53.2-22.4-13.1 7.4-15.7 28.8-9.1 57-27.3 7.9-45.5 20.8-45.5 35.4 0.1 3.5 1 6.7 2.9 10.2 5.8 10.4 21.2 20.1 42.1 26.7-5.4 21.2-5.7 38.7 0.5 49.8 1.9 3.5 4.2 5.9 7.1 7.9 12.4 7.7 32.9-1 54.1-20 19.6 19.1 39.9 27.9 52.4 21zm43.1-96.9c1.1 2.1 1.9 3.5 0.9 5 0.3 7.1-9.6 15.3-25.3 21.3-3.8 1.3-8.4 2.9-12.2 4.1-2.2-8.8-5.7-16.9-9.4-26.7 4.2-8.7 7.7-17 10.2-25.7 18.7 6 31.5 14.4 35.8 22zm-95.6 36.7c-6.4-0.1-12.7-0.1-18.8-1.3-3.8-5.2-6.9-10.8-10-16.3-3.1-5.6-6.2-11.2-8.6-17.1 2.6-5.1 5.9-10.6 8.8-16.8 3.3-5.4 6.6-10.9 10.3-15.7 6-0.6 12.4-0.5 18.8-0.4 6.4 0.1 13.1 0.9 19.5 1 3.8 5.1 6.9 10.7 10 16.3 3.1 5.5 6.2 11.1 8.6 17.1-2.6 5.1-5.5 11.2-9.5 17.1-3.3 5.5-6.6 10.9-10.3 15.7-6 0.6-12.4 0.5-18.8 0.4zm11.2 10.3c-3.7 4.7-7.8 8.8-11.2 12.5-4.1-4.1-7.5-8.6-10.9-13.1 3.6-0.1 7.5 0.4 11 0.3 3.3 0.9 7.5 0.4 11.1 0.3zm-60.8-16.4c1.6-5.4 3.8-11.2 6.4-16.3 1.9 3.5 3.8 7 5.4 9.8 1.9 3.4 3.9 6.9 5.4 9.7-5.7-0.5-11.8-1.6-17.2-3.2zm6.3-40.8c-2-5.3-4-10.6-5.3-16.2 5.6-1.3 11.6-1.9 16.5-2.8-2 2.9-4 5.8-5.6 9.5-1.6 3.6-3.6 6.5-5.6 9.5zm32.7-30.9c3.6-4.8 7.7-8.9 11.4-13.7 4.1 4.1 7.5 8.6 11.3 13.8-4-0.6-7.5-0.4-11.4-1-3.9 1.3-7.4 1.4-11.3 0.9zm60.7 16.3c-1.5 5.4-4.2 10.5-5.7 15.9-1.9-3.5-3.5-6.2-5.4-9.7-1.9-3.5-3.5-6.3-5.4-9.8 5.4 1.6 11.5 2.8 16.5 3.6zm-11.9 50.4c1.6-3.7 3.6-6.6 5.2-10.2 2.4 5.9 4.4 11.2 5.7 16.8-5.6 1.3-11.6 1.9-17.6 2.5 2.4-2.2 4.4-5.1 6.7-9.1zm-19.3-95c13.4-10.2 24.9-13.9 31.5-10.2 1.5 1 2.9 2 3.7 3.4 4.3 7.7 4.2 22.2-0.6 41.3-8.2-1.8-17.5-3.9-27.2-4.9-5.3-8-11.3-15.6-17.7-22.1 3.1-2.6 6.9-5.6 10.3-7.5zm-72.1 20c-1.9-16.3 0.7-29.5 6.3-32.6 6.2-3.5 17.8 1 30.6 11.2 3.4 2.7 6.7 5.4 9.7 9.2-6.5 6.3-12.5 13.3-17.8 21.7-9.6 0.8-18.7 2.2-26.8 4-0.9-5-1.5-9.2-2-13.5zm-43.5 50.6c-0.3-7.1 9.6-15.3 25.3-21.3 3.8-1.2 8.4-2.9 12.9-4.5 2.9 8.5 5.8 16.9 9.7 25.6-4.2 8.7-7.3 17.8-10.2 25.7-18.7-6-31.1-13.7-35.4-21.3-1.4-1-1.5-2.8-2.3-4.2zm78.7 74.7c-13.4 10.2-24.9 13.9-31.5 10.2-1.5-1-2.9-2-3.7-3.4-4.3-7.6-4.2-22.2 0.6-41.3 8.6 2.5 17.5 3.9 27.2 4.9 5.3 8 11.3 15.6 16.6 21.8q-3.6 3.3-9.2 7.8zm34.8 0.7c-3.3-2.7-6.7-5.4-9.7-9.2 5.8-5.9 11.8-12.9 17.5-20.6 9.6-0.8 18.7-2.2 27.9-3.7 0.5 4.3 2.2 8.8 2.7 13.1 1.8 16.3-0.4 28.5-6.7 31.9-6.6 2.8-18.8-1.3-31.7-11.5z"/>
	<path class="s3" d="m308.3 222.4c5.5 9.8 17.3 13.2 27 7.8 9.7-5.4 13.1-17.3 7.6-27-5.4-9.8-17.2-13.2-26.9-7.8-9.7 5.4-13.1 17.3-7.7 27z"/>
</svg>
